!!!OTL: Adonay adonay Jesu
**kern
*staff1
=1-
*clefF4
*k[]
*met(c|)
*M2/2
2G\
2G\
2G\
2G\
=2
2B\
2G\
2G\
2G\
=3
2E\
2E\
2A\
2A\
=4
0G
=5
!!linebreak:original
2G\
2G\
2D\
2G\
=6
4C/
4D\
4E\
4F\
2G\
2G\
=7
2G\
2E\
2D\
2D\
=8
0G
=9
!!linebreak:original
1G
1G
=10
1G
1G
=11
2D\
2G\
1E
=12
2G\
2D\
0G
=13
!!linebreak:original
2GG/
2D\
2E\
2D\
=14
2GG/
2D\
2E\
2D\
=15
2E\
2D\
0GG
=16
!!linebreak:original
1G
1G
=17
2C/
2C/
2F\
2F\
=18
2C/
2F\
2C/
2F\
=19
2F\
2C/
2F\
2F\
=20
1C
2F\
4F\
4F\
=21
!!pagebreak:original
2C/
4C/
4C/
2F\
4F\
4F\
=22
0G
=23
0G
=24
1G
0G
0G
==
*-
!!title: @{OTL}, @{GTL}, ed. @{ENC}
!!!pag:
!!!GTL: Hymnbook D
!!!EFL: 
!!!YEM: Creative Commons CC/BY/NC/SA 4.0
!!!ENC: Marcin Konik
!!!END: 2015-0m-dd
!!!EED: Marcin Konik
!!!EEV: 
!!!ONB: Encoded in vim by Marcin Konik
!!!CharacterEncoding: utf-8
!!!RDF**kern: l=long note in original notation
!!!RDF**kern: i=editorial accidental
!!muse2ps: z14jc180F
!!!COM: Anonim
!!!CDT: [?]
!!!TXO: Polish
!!!ODT: 
!!!GTL: Hymnbook D
!!!ARL: Opactwo św. Wojciecha, Staniątki 
!!!voices:	1
